X:478
T:B478-  Under the Greenwood Tree
S:(2nd/2)
Q:1/4=120
L:1/4
M:6/4
K:D mixolydian
B/c/|d2dd2c|B/c/dBGBG|AFDE2F|(G3G2):|G|\
F2EF2G|A3/2B/AD2A|B3/2A/GA2B|(c3c2)":s:"d|\
B3/2A/GA2D|B3/2A/Gc2B|A3/2G/FE2D|(D3D2)|]



